X:1
T:E minor Daniel Belknap, 1806
T:Isaac Watts, 1709 (Hymn 86, Book 2) 86. 86. (C. M.)
T:Blendon
T:Transcribed from The Village Compilation, 1806.
%%score [ 1 2 3 ]
L:1/8
M:2/4
K:G
V:1 treble nm="Treble" snm="Tr."
V:2 treble-8 nm="Tenor" snm="T."
V:3 bass nm="Bass" snm="B."
V:1
 B4 | Be ^d2 | e3 d | d2 ^c2 | d3 B | c2 BA | G2 A2 | B3 B | BG G2 | GE E2 | d2 dB | d3 B | g2 gB | %13
w: 1.~Our|sins, * a-|las! How|strong they|be, And|like a *|ra- ging|sea; They|break * our|du- * ty,|Lord, to *|thee, And|hur- ry *|
 e2 dB | A4 | z2 B2 | G3 B | A2 A2 | de dB | d2 B2 | e^d ef | gd g2 | f3 d | eB d2 | A3 B | Be BA | %26
w: us a- *|way.|The|waves of|trou- ble,|how * they *|rise, How|loud * the *|tem- * pests|roar! But|death * shall|land our|wea- * ry *|
 G4 | A2 GA | B2 ^d2 | e4 |] %30
w: souls|Safe on the|heav'n- ly|shore.|
V:2
 B4 | B2 B2 | B3 B | B2 A2 | A3 E/F/ | G2 B2 | eg fe | ^d3 e | dB B2 | BG G2 | B2 BG | A3 G/A/ | %12
w: 2.~There|shall we|sit, and|sing, and|tell The *|won- ders|of * his *|grace, Till|heav'n- * ly|rap- * tures|fire our *|hearts, And *|
 B2 GB | A2 BG | d4 | z2 B2 | (B e2) g | d2 d2 | Bc BG | A2 GA | B2 B2 | Be e2 | ^d3 e | B2 A2 | %24
w: smile in *|eve- ry *|face.|For|ev- * er|his dear|sa- * cred *|name Shall *|dwell up-|on * our|tongue, And|Je- sus|
 d3 B | eB d2 | d4 | d2 Bc | B2 B2 | B4 |] %30
w: and sal-|va- * tion|be|The close of|eve- ry|song.|
V:3
 E,4 | E,2 B,,2 | E,3 A, | G,2 A,2 | D,3 D, | E,2 E,2 | E,2 F,2 | B,,3 E, | E,2 E,2 | E,2 E,F, | %10
 G,2 G,2 | D,3 E, | E,2 G,2 | A,2 B,,2 | D,4 | %15
 z2"^______________________________\nEdited by B. C. Johnston, 2015\nTop staff, labeled \"Air\" in original, switched with second staff." E,2 | %16
 E,3 B,, | D,2 D,2 | D,2 D,2 | D,2 G,F, | E,2 E,2 | E,2 E,2 | B,3 G, | G,2 D,2 | D,3 B,, | %25
 G,2 D,2 | G,,4 | D,2 G, F,/E,/ | B,,2 B,,2 | E,4 |] %30

